X: 141
T: No_75_They_Come_Hooting.krn
N: Derived from No_75_They_Come_Hooting.krn
%%abc-version 2.0
%%abcx-abcm2ps-target-version 5.9.1 (29 Sep 2008)
%%abc-creator hum2abc beta
%%abcx-conversion-date 2019/03/15 08:37:56
%%humdrum-veritas 2082023902
%%humdrum-veritas-data 2599029279
%%linebreak <none>
%%barnumbers 0
L: 1/8
M: 2/4
K: Bb clef=bass
[K:clef=bass][M:2/4]F,3/D/ D3/B,/ | 
C3/C/ C3/C/ | 
(B,3/F,/) (F,C/)C/ | 
(B,3/F,/) (3(G,/F,)F, | 
F,3/F,/ F,3/D,/ | 
F,F,/F,/F,2 ]|:  
B,2(5:4:5C/C/C/C/C/ | 
(3B,F,F, (3G,F,F, ||  
[M:3/4]F,3/F,/ (3F,F,F, F, z ||  
[M:2/4](3G,F,F, F,3/D,/ | 
F,3/F,/ F,3/D,/ | 
F,F,/F,/F,2 :|]  



